src/actions/22/tools-media-optical-burn-image.svg

<svg viewBox="0 0 22 22" xmlns="http://www.w3.org/2000/svg">
 <defs>
  <style type="text/css">.ColorScheme-Text {
        color:#2e3440;
      }</style>
 </defs>
 <path class="ColorScheme-Text" d="m11 3c-4.432 0-8 3.568-8 8s3.568 8 8 8 8-3.568 8-8-3.568-8-8-8zm0 1c3.878 0 7 3.122 7 7s-3.122 7-7 7-7-3.122-7-7 3.122-7 7-7zm0 1c-3.324 0-6 2.676-6 6h3c0-1.662 1.338-3 3-3v-3zm0 4c-1.108 0-2 0.892-2 2s0.892 2 2 2c1.108 0 2-0.892 2-2s-0.892-2-2-2zm0 1c0.554 0 1 0.446 1 1s-0.446 1-1 1-1-0.446-1-1 0.446-1 1-1zm3 1c0 1.662-1.338 3-3 3v3c3.324 0 6-2.676 6-6h-3z" fill="currentColor"/>
</svg>

<svg xmlns="http://www.w3.org/2000/svg" viewBox="0 0 22 22">
  <defs id="defs3051">
    <style type="text/css" id="current-color-scheme">
      .ColorScheme-Text {
        color:#2e3440;
      }
      </style>
  </defs>
 <path 
    style="fill:currentColor;fill-opacity:1;stroke:none" 
    d="M 11 3 C 6.568 3 3 6.568 3 11 C 3 15.432 6.568 19 11 19 C 15.432 19 19 15.432 19 11 C 19 6.568 15.432 3 11 3 z M 11 4 C 14.878 4 18 7.122 18 11 C 18 14.878 14.878 18 11 18 C 7.122 18 4 14.878 4 11 C 4 7.122 7.122 4 11 4 z M 11 5 C 7.676004 5 5 7.676 5 11 L 8 11 C 8 9.338 9.3380018 8 11 8 L 11 5 z M 11 9 C 9.8920013 9 9 9.892 9 11 C 9 12.108 9.8920013 13 11 13 C 12.107999 13 13 12.108 13 11 C 13 9.892 12.107999 9 11 9 z M 11 10 C 11.553999 10 12 10.446 12 11 C 12 11.554 11.553999 12 11 12 C 10.446001 12 10 11.554 10 11 C 10 10.446 10.446001 10 11 10 z M 14 11 C 14 12.662 12.661998 14 11 14 L 11 17 C 14.323996 17 17 14.324 17 11 L 14 11 z "
    class="ColorScheme-Text"
    />  
</svg>
